X:10
M:6/8
L:1/8
K:D
| A2F A2F | DED D2B | AFF A2F | G3 B3 | 
| ABc d2c | BAF A3 | ABc dcB | A3 d3 | 

